packages/components/svg/outline/bell.svg

<svg xmlns="http://www.w3.org/2000/svg" width="24" height="24" fill="currentColor" viewBox="0 0 24 24">
<path fill-rule="evenodd" clip-rule="evenodd" d="M12 2C15.8939 2 19.1043 5.05334 19.2988 8.94238L19.4883 12.7402L20.8086 15.3818L20.8916 15.5752C20.963 15.7724 21 15.9811 21 16.1914C20.9998 17.1902 20.1902 17.9998 19.1914 18H16.8994C16.4361 20.2822 14.4189 22 12 22C9.58108 22 7.5639 20.2822 7.10059 18H4.80859C3.87218 17.9998 3.10242 17.288 3.00977 16.376L3 16.1914L3.01172 15.9814C3.03599 15.7733 3.09713 15.5703 3.19141 15.3818L4.51172 12.7402L4.70117 8.94238C4.89572 5.05335 8.10608 2 12 2ZM9.17383 18C9.58595 19.1647 10.6942 20 12 20C13.3058 20 14.414 19.1647 14.8262 18H9.17383ZM12 4C9.17193 4 6.84069 6.21752 6.69922 9.04199L6.50879 12.8408C6.49491 13.117 6.42441 13.3874 6.30078 13.6348L5.11816 16H18.8818L17.6992 13.6348C17.576 13.388 17.5051 13.1174 17.4912 12.8408L17.3008 9.04199C17.1594 6.21753 14.8281 4 12 4Z" />
</svg>

<svg xmlns="http://www.w3.org/2000/svg" width="24" height="24" fill="currentColor" viewBox="0 0 24 24">
  <path  d="M9 17a3 3 0 0 0 6 0h2a5 5 0 0 1-10 0h2Z"/>
  <path  d="M12 4a5.307 5.307 0 0 0-5.3 5.042l-.191 3.799a2 2 0 0 1-.208.794L5.118 16h13.764l-1.183-2.365a2.004 2.004 0 0 1-.208-.794l-.19-3.799A5.307 5.307 0 0 0 12 4Zm9 12.191c0 1-.81 1.809-1.809 1.809H4.81a1.809 1.809 0 0 1-1.8-1.624L3 16.191l.012-.21a1.81 1.81 0 0 1 .18-.6l1.32-2.64.19-3.799a7.308 7.308 0 0 1 14.597 0l.19 3.798 1.32 2.642.083.193c.071.197.108.406.108.616Z"/>
</svg>
